icons/desktop/32/soccer-ball-32.svg

<svg width="32" height="32" viewBox="0 0 32 32" fill="none" xmlns="http://www.w3.org/2000/svg">
<path d="M15.1252 12.9482C15.6502 12.5663 16.362 12.5663 16.8879 12.9482L18.9963 14.4795C19.5221 14.8615 19.7422 15.5384 19.5413 16.1562L18.7356 18.6338C18.5346 19.2518 17.9588 19.6699 17.3088 19.6699H14.7043C14.0543 19.6699 13.4776 19.2518 13.2766 18.6338L12.4719 16.1562C12.271 15.5384 12.4911 14.8615 13.0168 14.4795L15.1252 12.9482Z" fill="black"/>
<path fill-rule="evenodd" clip-rule="evenodd" d="M16.0071 2C23.7391 2 30.0071 8.26801 30.0071 16C30.0071 23.732 23.7391 30 16.0071 30C8.27509 30 2.00708 23.732 2.00708 16C2.00708 8.26801 8.27509 2 16.0071 2ZM11.3127 5.50098C9.96248 6.10563 8.75086 6.96268 7.73657 8.0127L9.47876 12.5508C9.71176 13.1568 9.52771 13.8449 9.02271 14.2539L4.64771 17.7959C4.84788 19.0723 5.25843 20.2783 5.84204 21.3789L9.99634 21.1621C10.6452 21.1282 11.2419 21.5152 11.4749 22.1221L13.426 27.2051C14.256 27.3955 15.1193 27.5 16.0071 27.5C16.9444 27.5 17.8546 27.3844 18.7268 27.1729L19.9768 22.5107C20.1448 21.8829 20.698 21.4354 21.3469 21.4014L26.2922 21.1416C26.8618 20.0045 27.2473 18.7609 27.4124 17.4473L23.2307 14.7324C22.6857 14.3784 22.4309 13.7139 22.5989 13.0859L24.0256 7.75977C23.0648 6.82466 21.9414 6.05729 20.7014 5.50195L16.8889 8.27246C16.364 8.65415 15.6521 8.65416 15.1262 8.27246L11.3127 5.50098Z" fill="black"/>
</svg>

<!-- This Source Code Form is subject to the terms of the Mozilla Public
   - License, v. 2.0. If a copy of the MPL was not distributed with this
   - file, You can obtain one at http://mozilla.org/MPL/2.0/. -->
<svg xmlns="http://www.w3.org/2000/svg" width="32" height="32" fill="context-fill" fill-opacity="context-fill-opacity" viewBox="0 0 32 32">
    <path d="M15.125 12.948a1.5 1.5 0 0 1 1.763 0l2.108 1.531a1.5 1.5 0 0 1 .545 1.677l-.805 2.478a1.5 1.5 0 0 1-1.427 1.036h-2.605c-.65 0-1.226-.418-1.427-1.036l-.805-2.478a1.5 1.5 0 0 1 .545-1.676z" />
    <path fill-rule="evenodd" d="M16.007 2c7.732 0 14 6.268 14 14s-6.268 14-14 14-14-6.268-14-14 6.268-14 14-14m-4.694 3.501a11.5 11.5 0 0 0-3.576 2.512l1.742 4.538a1.5 1.5 0 0 1-.456 1.703l-4.375 3.542c.2 1.276.61 2.482 1.194 3.583l4.154-.217a1.5 1.5 0 0 1 1.479.96l1.951 5.083c.83.19 1.693.295 2.581.295.937 0 1.848-.116 2.72-.327l1.25-4.662a1.5 1.5 0 0 1 1.37-1.11l4.945-.26c.57-1.136.955-2.38 1.12-3.694l-4.181-2.715a1.5 1.5 0 0 1-.632-1.646l1.427-5.326A11.5 11.5 0 0 0 20.7 5.502l-3.812 2.77a1.5 1.5 0 0 1-1.763 0z" clip-rule="evenodd" />
</svg>
